X: 3550
T: Big Mon
R: reel
M: 4/4
K: Gmajor
D2 E2 F2|:"G"GF GA BG AG|"F"=FE FG AG FE|"G"DE GA Bc de|
=fe dc BA GA|GF GA BG AG|"F"=FE FG AG FE|"G"DE GA BG de|"D"dc BA "G"G2 DE:|
"G"Gd BG d2 de|_BA G=F GF DC|D=F GD _B=B GF|GD =FG "D"A2 z2|
"G"Gd BG d2 de|_BA G=F GF DC|D=F GD _B=B GF|"D"DC _B,=B, "G"G,2 z2|
"G"Gd BG d2 de|_BA G=F GF DC|D=F GD _B=B GF|GD =FG "D"A2 z2|
"G"D2 d=f ^cd f_d|c_B _dc BG =FB|G=F _BG FD GF|"D"DC _B,=B, "G"G,2 z2||

